polaris-icons/icons/new-icons/FavoriteMajor.svg

<svg width="20" height="20" viewBox="0 0 20 20" fill="none" xmlns="http://www.w3.org/2000/svg">
<path fill-rule="evenodd" clip-rule="evenodd" d="M8.87186 4.12281C9.32465 3.17391 10.6754 3.17391 11.1281 4.12281L12.5177 7.03482L15.7166 7.45649C16.7589 7.5939 17.1763 8.87849 16.4138 9.60235L14.0737 11.8237L14.6612 14.9964C14.8526 16.0302 13.7599 16.8241 12.8358 16.3226L10 14.7835L7.1642 16.3226C6.24013 16.8241 5.14739 16.0302 5.33882 14.9964L5.9263 11.8237L3.5862 9.60235C2.82366 8.87849 3.24105 7.5939 4.28343 7.45649L7.48231 7.03482L8.87186 4.12281ZM10 5.24164L8.77765 7.80327C8.59543 8.18515 8.23237 8.44893 7.81287 8.50423L4.99889 8.87516L7.05742 10.8293C7.3643 11.1206 7.50297 11.5474 7.42593 11.9634L6.90914 14.7543L9.40373 13.4004C9.77562 13.1986 10.2244 13.1986 10.5963 13.4004L13.0909 14.7543L12.5741 11.9634C12.497 11.5474 12.6357 11.1206 12.9426 10.8293L15.0011 8.87516L12.1871 8.50423C11.7676 8.44893 11.4046 8.18515 11.2223 7.80327L10 5.24164Z" fill="#4A4A4A"/>
</svg>

<svg viewBox="0 0 20 20" xmlns="http://www.w3.org/2000/svg"><path fill-rule="evenodd" d="M8.872 4.123c.453-.95 1.803-.95 2.256 0l1.39 2.912 3.199.421c1.042.138 1.46 1.422.697 2.146l-2.34 2.222.587 3.172c.192 1.034-.901 1.828-1.825 1.327l-2.836-1.54-2.836 1.54c-.924.501-2.017-.293-1.825-1.327l.587-3.172-2.34-2.222c-.762-.724-.345-2.008.697-2.146l3.2-.421 1.389-2.912Zm1.128 1.119-1.222 2.561a1.25 1.25 0 0 1-.965.701l-2.814.371 2.058 1.954c.307.292.446.718.369 1.134l-.517 2.791 2.495-1.354a1.25 1.25 0 0 1 1.192 0l2.495 1.354-.517-2.79a1.25 1.25 0 0 1 .369-1.135l2.058-1.954-2.814-.37a1.25 1.25 0 0 1-.965-.702l-1.222-2.561Z" fill="#5C5F62"/></svg>
